!!!SOCIAL_FUNCTION:	songs used in the treatment of the sick
!!!PDT:	1929
!!!OTL: No_73_In_the_Blue_Night.krn
!!!REG: Southwest
!!!LANG: Non-Tone
!!!LING_GROUP: Uto-Aztecan
**kern
*staff1
=1-
*clefF4
*k[b-e-]
*M2/4
4F\
4d\
=2||
*M3/8
4d\
8B-\
=3
4c\
8c\
=4
4B-\
8F\
=5
8B-\L
8B-\
8B-\J
=6||
*M2/4
4B-\
4B-\
=7
4B-\
4r
=8!|:
4B-\
4c\
=9||
*M3/8
4B-\
8F\
=10
(8G\L
8F\)
8F\J
=11
4F\
8D\
=12
8F\L
8F\
8F\J
=13||
*M2/4
4F\
4F\
=14||
*M3/4
4F\
4r
4B-\
=15||
*M3/8
8c\L
8c\
8c\J
=16||
*M2/4
4c\
4c\
=17||
*M3/8
8B-\L
8B-\
8B-\J
=18||
*M2/4
4B-\
8G\L
8F\J
=19||
*M3/4
4F\
4D\
8G\L
8F\J
=20||
*M3/8
4F\
8D\
=21
4F\
8F\
=22
4D\
8D\
=23||
*M2/4
8F\L
[8F\J
8F\L]
8F\J
=24||
*M3/8
4F\
8D\
=25||
*M2/4
4F\
4F\
==:|!
*-
